static/img/safe.svg

<svg fill="none" height="89" viewBox="0 0 89 89" width="89" xmlns="http://www.w3.org/2000/svg" xmlns:xlink="http://www.w3.org/1999/xlink"><clipPath id="a"><path d="m0 0h89v89h-89z"/></clipPath><g clip-path="url(#a)"><path d="m1.31714 19.0588v35.244c0 9.0958 8.2236 17.3194 16.46496 23.2824 8.2414 5.963 16.465 9.6476 16.465 9.6476s32.93-14.7384 32.93-32.93v-35.244l-32.93-13.72384z" fill="#fff"/><path d="m34.3005 78.4218c-2.9014-1.513-7.4048-4.0228-11.8726-7.2446-8.3838-6.052-13.17204-12.2108-13.17204-16.8566v-29.9752l24.99124-10.413 25.009 10.413v29.9574c0 8.0812-13.884 18.4586-24.9556 24.119z" fill="#ff9d9c"/><path d="m34.247 38.2472c3.9322 0 7.12-3.1877 7.12-7.12s-3.1878-7.12-7.12-7.12c-3.9323 0-7.12 3.1877-7.12 7.12s3.1877 7.12 7.12 7.12z" fill="#fff"/><path d="m48.8787 56.5989h-29.2632c.0178-5.8918 3.5244-10.9648 8.5618-13.2788l11.57-.2492c5.34 2.1716 9.1136 7.4048 9.1314 13.528z" fill="#2ebfa5"/><g fill="#454b53"><path d="m55.6428 71.9248c-.5518.4806-.5874 1.335-.1068 1.8868.2492.2848.623.445.9968.445.3204 0 .6408-.1246.89-.356.5518-.4806.5874-1.335.1068-1.869s-1.3706-.5874-1.8868-.1068z"/><path d="m67.6934 17.8306-32.93-13.7238c-.3204-.1424-.6942-.1424-1.0146 0l-32.93 13.7238c-.4984.1958-.8188.6764-.8188 1.2282v35.244c.0178 4.5034 1.8512 9.0958 5.4112 13.6348 2.7946 3.5778 6.586 7.0844 11.5878 10.7334 8.01 5.7672 15.842 9.3806 16.7142 9.7722.178.0712.356.1068.5518.1068.178 0 .356-.0356.5518-.1068 0-.0178.0178-.0178.0712-.0356 1.8156-.8544 11.3386-5.3934 19.758-12.1396.5696-.4628.6586-1.3172.2136-1.8868-.445-.5518-1.335-.6408-1.8868-.1958-4.628 3.7202-9.6298 6.7284-13.0118 8.6152-2.6522 1.4774-4.6992 2.4742-5.7138 2.9548-1.9758-.9434-8.7932-4.272-15.6818-9.256-5.9808-4.2898-15.9844-12.8872-15.9132-22.1966v-34.354l7.7786-3.2396c.0356-.0178.0712-.0178.089-.0356l23.7274-9.879 31.595 13.1542v34.354c.0178 4.8416-2.581 9.968-7.6896 15.219-.5162.5162-.4984 1.3706.0178 1.8868.5162.4984 1.3884.4806 1.8868-.0356 5.607-5.7494 8.455-11.4988 8.455-17.0702v-35.244c0-.5518-.3204-1.0324-.8188-1.2282z"/><path d="m47.4903 17.9907-12.727-5.3044c-.3204-.1246-.6942-.1246-1.0146 0l-25.009 10.413c-.4984.2136-.8188.6942-.8188 1.246v29.9574c.089 5.3045 4.6992 11.3387 13.7238 17.9425 4.5034 3.2396 9.0246 5.785 12.0328 7.3514.1958.1068.4094.1424.623.1424s.4272-.0356.6052-.1424c6.1944-3.1684 12.371-7.298 16.91-11.3386 5.8562-5.2332 8.722-9.8079 8.7754-13.9553v-29.9574c0-.5518-.3204-1.0324-.8188-1.246l-5.7138-2.3674c-.6586-.2848-1.4596.0534-1.7266.712-.1424.3382-.1424.6942-.0178 1.0324.1424.3204.3916.5696.712.712 0 0 0 0 .0178.0178l4.8772 2.0292v29.0674c.0534 3.0972-2.8836 7.5828-7.8854 11.9616-4.2008 3.738-9.9502 7.6185-15.7352 10.6445-2.7946-1.4774-6.9776-3.8626-11.0894-6.8352-7.7786-5.5536-12.727-11.748-12.6202-15.7709v-29.0674l23.674-9.8612 12.2108 5.0908c.6586.267 1.4596-.0712 1.7444-.7298.267-.6764-.0534-1.4596-.7298-1.7444z"/><path d="m49.7509 21.8178c.1602.0712.3382.1068.5162.1068.5518 0 1.0324-.3204 1.2282-.8188.1424-.3204.1424-.6942 0-1.0146-.1246-.3382-.3916-.5874-.712-.7298-.6586-.2848-1.4774.0534-1.7444.712-.1424.3382-.1424.6942 0 1.0324.1246.3204.3916.5874.712.712z"/><path d="m34.2472 39.5999c4.6636 0 8.455-3.7914 8.455-8.455s-3.7914-8.455-8.455-8.455-8.455 3.7914-8.455 8.455c0 4.6458 3.7914 8.455 8.455 8.455zm0-14.2578c3.1862 0 5.785 2.5988 5.785 5.785s-2.5988 5.785-5.785 5.785-5.785-2.5988-5.785-5.785 2.5988-5.785 5.785-5.785z"/><path d="m40.2457 41.8428c-.1602-.0712-.3382-.089-.534-.1068l-11.57.2492c-.178 0-.356.0534-.534.1246-5.6604 2.581-9.3272 8.2592-9.345 14.4714 0 .356.1424.6942.3916.9434s.5874.3916.9434.3916h29.2632c.356 0 .6942-.1424.9434-.3916s.3916-.5874.3916-.9434c0-6.497-3.916-12.282-9.9502-14.7384zm-19.224 13.4212c.4806-4.5568 3.293-8.5974 7.476-10.6088l11.0004-.2314c4.4678 1.9224 7.4938 6.0698 7.9922 10.8402z"/></g></g></svg>

<svg width="89" height="89" viewBox="0 0 89 89" fill="none" xmlns="http://www.w3.org/2000/svg">
<g clip-path="url(#clip0)">
<path d="M1.31714 19.0588V54.3028C1.31714 63.3986 9.54074 71.6222 17.7821 77.5852C26.0235 83.5482 34.2471 87.2328 34.2471 87.2328C34.2471 87.2328 67.1771 72.4944 67.1771 54.3028V19.0588L34.2471 5.33496L1.31714 19.0588Z" fill="white"/>
<path d="M34.3005 78.4218C31.3991 76.9088 26.8957 74.399 22.4279 71.1772C14.0441 65.1252 9.25586 58.9664 9.25586 54.3206V24.3454L34.2471 13.9324L59.2561 24.3454V54.3028C59.2561 62.384 45.3721 72.7614 34.3005 78.4218Z" fill="#FF9D9C"/>
<path d="M34.247 38.2472C38.1792 38.2472 41.367 35.0595 41.367 31.1272C41.367 27.1949 38.1792 24.0072 34.247 24.0072C30.3147 24.0072 27.127 27.1949 27.127 31.1272C27.127 35.0595 30.3147 38.2472 34.247 38.2472Z" fill="white"/>
<path d="M48.8787 56.5989H19.6155C19.6333 50.7071 23.1399 45.6341 28.1773 43.3201L39.7473 43.0709C45.0873 45.2425 48.8609 50.4757 48.8787 56.5989Z" fill="#2EBFA5"/>
<path d="M55.6428 71.9248C55.091 72.4054 55.0554 73.2598 55.536 73.8116C55.7852 74.0964 56.159 74.2566 56.5328 74.2566C56.8532 74.2566 57.1736 74.132 57.4228 73.9006C57.9746 73.42 58.0102 72.5656 57.5296 72.0316C57.049 71.4976 56.159 71.4442 55.6428 71.9248Z" fill="#454B53"/>
<path d="M67.6934 17.8306L34.7634 4.1068C34.443 3.9644 34.0692 3.9644 33.7488 4.1068L0.8188 17.8306C0.3204 18.0264 0 18.507 0 19.0588V54.3028C0.0178 58.8062 1.8512 63.3986 5.4112 67.9376C8.2058 71.5154 11.9972 75.022 16.999 78.671C25.009 84.4382 32.841 88.0516 33.7132 88.4432C33.8912 88.5144 34.0692 88.55 34.265 88.55C34.443 88.55 34.621 88.5144 34.8168 88.4432C34.8168 88.4254 34.8346 88.4254 34.888 88.4076C36.7036 87.5532 46.2266 83.0142 54.646 76.268C55.2156 75.8052 55.3046 74.9508 54.8596 74.3812C54.4146 73.8294 53.5246 73.7404 52.9728 74.1854C48.3448 77.9056 43.343 80.9138 39.961 82.8006C37.3088 84.278 35.2618 85.2748 34.2472 85.7554C32.2714 84.812 25.454 81.4834 18.5654 76.4994C12.5846 72.2096 2.581 63.6122 2.6522 54.3028V19.9488L10.4308 16.7092C10.4664 16.6914 10.502 16.6914 10.5198 16.6736L34.2472 6.7946L65.8422 19.9488V54.3028C65.86 59.1444 63.2612 64.2708 58.1526 69.5218C57.6364 70.038 57.6542 70.8924 58.1704 71.4086C58.6866 71.907 59.5588 71.8892 60.0572 71.373C65.6642 65.6236 68.5122 59.8742 68.5122 54.3028V19.0588C68.5122 18.507 68.1918 18.0264 67.6934 17.8306Z" fill="#454B53"/>
<path d="M47.4903 17.9907L34.7633 12.6863C34.4429 12.5617 34.0691 12.5617 33.7487 12.6863L8.7397 23.0993C8.2413 23.3129 7.9209 23.7935 7.9209 24.3453V54.3027C8.0099 59.6072 12.6201 65.6414 21.6447 72.2452C26.1481 75.4848 30.6693 78.0302 33.6775 79.5966C33.8733 79.7034 34.0869 79.739 34.3005 79.739C34.5141 79.739 34.7277 79.7034 34.9057 79.5966C41.1001 76.4282 47.2767 72.2986 51.8157 68.258C57.6719 63.0248 60.5377 58.4501 60.5911 54.3027V24.3453C60.5911 23.7935 60.2707 23.3129 59.7723 23.0993L54.0585 20.7319C53.3999 20.4471 52.5989 20.7853 52.3319 21.4439C52.1895 21.7821 52.1895 22.1381 52.3141 22.4763C52.4565 22.7967 52.7057 23.0459 53.0261 23.1883C53.0261 23.1883 53.0261 23.1883 53.0439 23.2061L57.9211 25.2353V54.3027C57.9745 57.3999 55.0375 61.8855 50.0357 66.2643C45.8349 70.0023 40.0855 73.8828 34.3005 76.9088C31.5059 75.4314 27.3229 73.0462 23.2111 70.0736C15.4325 64.52 10.4841 58.3256 10.5909 54.3027V25.2353L34.2649 15.3741L46.4757 20.4649C47.1343 20.7319 47.9353 20.3937 48.2201 19.7351C48.4871 19.0587 48.1667 18.2755 47.4903 17.9907Z" fill="#454B53"/>
<path d="M49.7509 21.8178C49.9111 21.889 50.0891 21.9246 50.2671 21.9246C50.8189 21.9246 51.2995 21.6042 51.4953 21.1058C51.6377 20.7854 51.6377 20.4116 51.4953 20.0912C51.3707 19.753 51.1037 19.5038 50.7833 19.3614C50.1247 19.0766 49.3059 19.4148 49.0389 20.0734C48.8965 20.4116 48.8965 20.7676 49.0389 21.1058C49.1635 21.4262 49.4305 21.6932 49.7509 21.8178Z" fill="#454B53"/>
<path d="M34.2472 39.5999C38.9108 39.5999 42.7022 35.8085 42.7022 31.1449C42.7022 26.4813 38.9108 22.6899 34.2472 22.6899C29.5836 22.6899 25.7922 26.4813 25.7922 31.1449C25.7922 35.7907 29.5836 39.5999 34.2472 39.5999ZM34.2472 25.3421C37.4334 25.3421 40.0322 27.9409 40.0322 31.1271C40.0322 34.3133 37.4334 36.9121 34.2472 36.9121C31.061 36.9121 28.4622 34.3133 28.4622 31.1271C28.4622 27.9409 31.061 25.3421 34.2472 25.3421Z" fill="#454B53"/>
<path d="M40.2457 41.8428C40.0855 41.7716 39.9075 41.7538 39.7117 41.736L28.1417 41.9852C27.9637 41.9852 27.7857 42.0386 27.6077 42.1098C21.9473 44.6908 18.2805 50.369 18.2627 56.5812C18.2627 56.9372 18.4051 57.2754 18.6543 57.5246C18.9035 57.7738 19.2417 57.9162 19.5977 57.9162H48.8609C49.2169 57.9162 49.5551 57.7738 49.8043 57.5246C50.0535 57.2754 50.1959 56.9372 50.1959 56.5812C50.1959 50.0842 46.2799 44.2992 40.2457 41.8428ZM21.0217 55.264C21.5023 50.7072 24.3147 46.6666 28.4977 44.6552L39.4981 44.4238C43.9659 46.3462 46.9919 50.4936 47.4903 55.264H21.0217Z" fill="#454B53"/>
</g>
<defs>
<clipPath id="clip0">
<rect width="89" height="89" fill="white"/>
</clipPath>
</defs>
</svg>
